X: 1
T:Aria di Postiglione
T:From BWV 0991?
C:Johann Sebastian Bach
O:Germany

V:1 Program 1 6 %Harpsichord
V:2 Program 1 6 bass up %Harpsichord
V:3 Program 1 6 bass merge down %Harpsichord
M:C
L:1/16
K:Bb
V:1
Bcde f2g2 fgfe Md3c|B2bB B2bB  B2bB B2bB|cBAG F2B2 A2GF F2fF|
V:2
z2F,2B,4-B,2A,2B,4|z16|F,6F,2-F,2=E,2F,4|
V:3
B,,6E,2F,4B,,4|z16|A,,2C,2D,2B,,2C,4F,,4|

V:1
F2fF F2f_e dcBc TA3B|B2bB B2bB  B2bB PB4::d2g2^f2g2 a2d2 g4|
V:2
z4z2[C,2F,2] F,2G,2F,4|[D,4F,4]z4z4[D,4F,4B,4]::B4A2G2 ^F2z2z4|
V:3
z4z2A,,2 B,,2_E,2F,4|B,,4z4z4B,,4::G,A,B,C D2E2 DEDC MB,3A,|

V:1
z16|^c2de f2e2 d2^c2d4|z4z2fFF4z2fF|
V:2
z16|A4-A2B2 A2G2F4|z16|
V:3
G,2GG, G,2GG, G,2GG, G,2G2|A,G,F,E, D,2G,2 F,2E,2 D,2DD,|D,2DD, D,4z4D,D,,D,,4|

V:1
F4z2bBB4z4|z2bB Bcde f2Bc TA3B|B2bBB4z2bBPB4:|]
V:2
z16|z6A,2 B,2G,2F,4-|[D,4F,4]z4z2F,2B,4:|]
V:3
z2B,B,,B,,4z2B,B,, B,,2B,B,,|B,,4z2C,2 D,2E,2F,2F,,2|B,,4z2B,B,,B,,8:|]

